X:11432
T:Munster cloak, The
R:Other
O:Ireland
M:3/4
K:D
D2 DE FD|E2 EF GE|D2 DE FA|G2 E2 C2|\
D2 DE FD|E2 EF GE|A2 AB AF|G2 F2 E2::
d2 de dc|A2 d2 e2|f2 e2 d2|c2 d3 e|\
f2 e2 d2|c2 AB cA|AG EA GE|A2 G2 E2:|
